svg/firework_off.svg

<svg xmlns="http://www.w3.org/2000/svg" viewBox="0 0 24 24"><path d="m20.84 22.73-7.67-7.67-4.45 4.44-1.43-1.41c-.25.07-.49.19-.66.41-.06.07-.13.15-.13.24-.08.14-.12.26-.18.41-.11.27-.23.54-.39.78-.12.17-.25.33-.4.46-.11.11-.24.2-.37.27-.08.05-.16.1-.26.13-.6.25-1.27.21-1.9.21v-2h.9c.1 0 .18 0 .26-.06l.05-.05c.07-.08.13-.19.18-.29.08-.18.14-.36.21-.54l.04-.1c.12-.27.26-.51.44-.73.1-.13.22-.23.34-.36.12-.1.24-.2.38-.28l-1.3-1.31 4.44-4.45L1.11 3l1.28-1.27 19.72 19.73zM21 3l-8.19 1.12 7.07 7.07zm-4.5 8.74L12.26 7.5l-.76.78 4.22 4.22z"/></svg>

<svg xmlns="http://www.w3.org/2000/svg" id="mdi-firework-off" viewBox="0 0 24 24"><path d="M20.84 22.73L13.17 15.06L8.72 19.5L7.29 18.09C7.04 18.16 6.8 18.28 6.63 18.5C6.57 18.57 6.5 18.65 6.5 18.74C6.42 18.88 6.38 19 6.32 19.15C6.21 19.42 6.09 19.69 5.93 19.93C5.81 20.1 5.68 20.26 5.53 20.39C5.42 20.5 5.29 20.59 5.16 20.66C5.08 20.71 5 20.76 4.9 20.79C4.3 21.04 3.63 21 3 21V19H3.9C4 19 4.08 19 4.16 18.94L4.21 18.89C4.28 18.81 4.34 18.7 4.39 18.6C4.47 18.42 4.53 18.24 4.6 18.06L4.64 17.96C4.76 17.69 4.9 17.45 5.08 17.23C5.18 17.1 5.3 17 5.42 16.87C5.54 16.77 5.66 16.67 5.8 16.59L4.5 15.28L8.94 10.83L1.11 3L2.39 1.73L22.11 21.46L20.84 22.73M21 3L12.81 4.12L19.88 11.19L21 3M16.5 11.74L12.26 7.5L11.5 8.28L15.72 12.5L16.5 11.74Z" /></svg>
